resources/haticons/SVG/hangouts.svg

<!-- Generated by IcoMoon.io -->
<svg version="1.1" xmlns="http://www.w3.org/2000/svg" width="24" height="24" viewBox="0 0 24 24">
<title>hangouts</title>
<path d="M11.995 0c-5.723 0-10.364 4.641-10.364 10.364 0 5.423 4.941 9.82 10.364 9.82v3.816c6.295-3.192 10.373-8.334 10.373-13.636 0-5.723-4.65-10.364-10.373-10.364zM10.5 12c0 1.242-0.67 2.25-1.5 2.25v-2.25h-3v-4.5h4.5v4.5zM18 12c0 1.242-0.67 2.25-1.5 2.25v-2.25h-3v-4.5h4.5v4.5z"></path>
</svg>

<svg xmlns="http://www.w3.org/2000/svg" width="24" height="24"><path d="M11.995 0C6.272 0 1.631 4.641 1.631 10.364c0 5.423 4.941 9.82 10.364 9.82V24c6.295-3.192 10.373-8.334 10.373-13.636C22.368 4.641 17.718 0 11.995 0zM10.5 12c0 1.242-.67 2.25-1.5 2.25V12H6V7.5h4.5V12zm7.5 0c0 1.242-.67 2.25-1.5 2.25V12h-3V7.5H18V12z"/></svg>
